X:80
T:If I Had You (Don Stiernberg)
C:
N:omas
L:1/8
Q:1/4=90
M:4/4
K:Bb
z8 | z8 | z8 | z4 zF =E_E | DE =EF dd z_d | c6 (3dd_d | c4 dd z_d | c8 | DE =EF AF _AG | 
z6 (3DFA | d2 (3AFD A,_A, D/E/D/_D/ | DG z_G z4 | z/D/z (3E=EF d2 d_d | c4 zz/4dz/4_d3/2 | 
c2 (3zcd zz/4dz/4_d3/2 | c8 | (3zDE (3=EFA z_A zG | z2 (3zFB (3ded B/G/F/_D/ | 
(3DB,A, (3B,DF D/E/_G/B/ c/_d/=d/f/ | gd/(3f {g}(3f=ec _dA z2 | d2 (3=ede d3/2A/4B/4 (3A_A=A | 
BB z7/2A/ BB/B/ | AB (3zAB AF z=E | z8 | d=e (3ded z3/2A/4B/4 (3A_A=A | B8 | AB (3ABA A=E F2 | 
E2 A,/B,/C/_D/ F/G/_d/f/ e/4f/4e/d/c/ | DE =E(3F2 dz/4dz/4_d3/2 | c4 zd _d2 | 
cd z4 z_d | c8 | DE =EF A2 _A2 | G=e/f/ b2 (3zgf (3dAc | B4 G4 | F6 "Mando Solo"_d=d | 
B2 F2 G2 B2 | d2 gf z2 (3zBG | B2 (3zGE (3B,EG (3BcB | (3cdB _G4 zf | =ef (3bBz (3df_e z_d | 
d/f/d/f/ g/f/d/f/ c4 | GG GF GA Bc | df (3zdf c2 (3fgb | d'e' d'c' f2 (3Bde | 
(3=efd (3_d=dA _A2 z3/4Fz/4 | f2 ze fe (3zAB | [f_G][fG] [fG][eG] f/_g/f z_d | 
(3de=e (3fd_e B3(3E/=E/_E/ | (3CFB (3dBd a2 (3z_ag | f2 z_d/=d/ bg (3f_d=d | BF GB A4 | 
z=e ed ed AB | B/c3/2 d7/4A/4 A2 F/=E/D/C/ | D/=E/F/D/ F/G/_A/=A/ _A/=A/c/_d/ =d/=e/f/g/ | 
f/g/4f/4=e/d/ _d/A/c/d/ a2 za | d'a _d'2 ba zf/g/4f/4 | =e/f/e/d/ _d/A/=B/d/ A/=E3/2 zF | 
=ED (3FG_A =A[eF] _dD | [cE][dF] [eG][=e_A] [f2=A2] zf/e/ | f2 zd/B/ g3d | fd f_a z2 [c'f][c'f] | 
[c'f][bf] [c'/f/]d'/b3 (3ece | c'c' c'b c'/d'/b3 | f/=e/_e/B/ _d/=d/B/G/ _D/=D/F/D/ G/F/=B, | 
CD E=E FA Bc | _d/=d3/2 zc/(3B (3GFB (3Gcz | B2 {_d}=dg {=e}fe fg | 


